dist/img/icon-service-card-3.svg

<svg width="80" height="80" viewBox="0 0 80 80" fill="none" xmlns="http://www.w3.org/2000/svg">
<rect width="80" height="80" rx="16" fill="#F4F5F6"/>
<path d="M41 23V29.8C41 29.9105 41.0895 30 41.2 30H45H48.8C48.9105 30 49 29.9105 49 29.8V23" stroke="#393939" stroke-linecap="round"/>
<path d="M32 36V23.2C32 23.0895 32.0895 23 32.2 23H40H50H57.8C57.9105 23 58 23.0895 58 23.2V39" stroke="#83C150" stroke-width="2" stroke-linecap="round"/>
<path d="M24 52.9999H27.4486C27.4823 52.9999 27.5113 53.0061 27.5409 53.0222C28.2367 53.4017 37.6305 58.4814 41 58C44.4165 57.5119 61.1732 48.448 61.9706 48.016C61.9959 48.0023 62.008 47.9894 62.0244 47.9657C62.2122 47.6936 63.3851 45.8468 62 44C60.5481 42.0641 58.1592 42.939 58.0076 42.9971C58.0024 42.999 57.9975 43.0012 57.9926 43.0037L46 48.9999" stroke="#393939" stroke-width="2" stroke-linecap="round"/>
<path d="M24 40.5V38.2C24 38.0895 23.9105 38 23.8 38H17.2C17.0895 38 17 38.0895 17 38.2V54.8C17 54.9105 17.0895 55 17.2 55H23.8C23.9105 55 24 54.9105 24 54.8V40.5ZM24 40.5L29.4323 39.0185C29.4761 39.0065 29.5227 39.0098 29.5644 39.0279L44.4974 45.4989C44.4991 45.4996 44.4992 45.4997 44.501 45.5004C44.557 45.5233 46.9827 46.5345 45.5 49.5C44.0225 52.455 40.6046 50.5589 40.5023 50.5013C40.4991 50.4995 40.4983 50.4992 40.495 50.4975L33.5 47" stroke="#393939" stroke-width="2" stroke-linecap="round"/>
</svg>

<svg width="80" height="80" fill="none" xmlns="http://www.w3.org/2000/svg"><rect width="80" height="80" rx="16" fill="#F4F5F6"/><path d="M41 23v6.8c0 .11.09.2.2.2h7.6a.2.2 0 00.2-.2V23" stroke="#393939" stroke-linecap="round"/><path d="M32 36V23.2c0-.11.09-.2.2-.2h25.6c.11 0 .2.09.2.2V39" stroke="#83C150" stroke-width="2" stroke-linecap="round"/><path d="M24 53h3.449c.033 0 .062.006.092.022.696.38 10.09 5.46 13.459 4.978 3.416-.488 20.173-9.552 20.97-9.984a.138.138 0 00.054-.05c.188-.272 1.361-2.12-.024-3.966-1.452-1.936-3.84-1.061-3.992-1.003a.134.134 0 00-.015.007L46 49" stroke="#393939" stroke-width="2" stroke-linecap="round"/><path d="M24 40.5v-2.3a.2.2 0 00-.2-.2h-6.6a.2.2 0 00-.2.2v16.6c0 .11.09.2.2.2h6.6a.2.2 0 00.2-.2V40.5zm0 0l5.432-1.481a.2.2 0 01.132.009l14.933 6.47.004.002c.056.023 2.482 1.035.999 4-1.477 2.955-4.895 1.059-4.998 1.001l-.007-.003L33.5 47" stroke="#393939" stroke-width="2" stroke-linecap="round"/></svg>
